packages/foundations/assets/icons/functional/images/human/stroller.svg

<svg xmlns="http://www.w3.org/2000/svg" width="32" height="32" fill="none"><path fill="#1A1C1F" fill-rule="evenodd" d="M19.598 2.607a1.2 1.2 0 0 0-.355.263c-.104.123-.547 1.387-1.723 4.915l-1.583 4.749-2.267-.013-2.267-.014-1.515-2.374C9.056 8.828 8.274 7.643 8.152 7.5c-.273-.318-.815-.677-1.275-.842-.33-.119-.417-.124-2.181-.141-1.573-.014-1.869-.005-2.057.067a.97.97 0 0 0-.584 1.191c.082.276.325.55.585.659.112.047.685.076 1.924.097l1.765.029.182.141c.116.09.603.8 1.329 1.939a103 103 0 0 1 1.164 1.846c.011.027-.646.047-1.539.047-1.514 0-1.563.004-1.77.12-.27.152-.477.496-.481.8-.003.152.212.896.65 2.254.36 1.114.712 2.179.782 2.366.309.825 1.022 1.595 1.85 1.999.964.47.232.435 8.944.435 6.267 0 7.766-.014 8.027-.072a4.4 4.4 0 0 0 1.827-.907c.271-.225.749-.837.917-1.173.25-.5 1.376-3.645 1.544-4.314.346-1.38.308-3.038-.107-4.648-.602-2.336-2-4.225-4.034-5.454-1.21-.731-2.812-1.227-4.441-1.376-.904-.082-1.323-.071-1.575.044m2.514 2.115c3.604.72 5.802 3.381 5.852 7.082l.009.703-4.946.013c-2.721.008-4.947-.001-4.947-.02s.59-1.822 1.311-4.007l1.311-3.973.382.037c.211.019.673.094 1.028.165m5.145 10.518c-.837 2.364-.933 2.556-1.46 2.912-.557.377-.036.355-8.33.355-8.131 0-7.755.013-8.235-.291-.225-.141-.553-.492-.662-.706-.062-.123-.641-1.865-.922-2.777l-.07-.226h19.939zm-15.815 6.309c-1.759.275-3.063 1.562-3.369 3.327a3.94 3.94 0 0 0 .97 3.276c.886.956 1.942 1.395 3.195 1.326 1.686-.092 3.108-1.221 3.608-2.865.162-.534.176-1.544.028-2.121-.343-1.338-1.452-2.46-2.803-2.834-.467-.129-1.188-.177-1.629-.109m11.011-.006c-1.608.226-2.897 1.381-3.339 2.993-.142.519-.131 1.448.024 1.994.209.734.498 1.217 1.073 1.793.418.418.59.549.962.731 1.202.59 2.566.581 3.678-.023a4.05 4.05 0 0 0 1.733-1.799 4 4 0 0 0 .107-3.227c-.453-1.115-1.471-2.025-2.623-2.344-.443-.123-1.192-.178-1.615-.118m-9.595 2.151c.581.284 1.027.887 1.11 1.501.149 1.095-.528 2.046-1.614 2.271-.838.173-1.771-.319-2.146-1.131-.136-.295-.155-.395-.155-.842 0-.434.02-.549.139-.802.24-.511.566-.819 1.109-1.049.255-.107.37-.123.782-.108.393.013.537.043.775.16m10.999.013c.407.202.844.672.992 1.066.136.364.15 1.022.029 1.365-.293.83-1.017 1.346-1.891 1.346-.751 0-1.416-.414-1.777-1.106-.158-.302-.17-.362-.17-.858 0-.463.018-.572.139-.829.239-.511.565-.819 1.109-1.049.256-.108.368-.123.779-.107.398.015.532.044.79.172"/></svg>

<svg width="32" height="32" viewBox="0 0 32 32" fill="none" xmlns="http://www.w3.org/2000/svg"><path d="M19.598 2.607 C 19.479 2.661,19.320 2.779,19.243 2.870 C 19.139 2.993,18.696 4.257,17.520 7.785 L 15.937 12.534 13.670 12.521 L 11.403 12.507 9.888 10.133 C 9.056 8.828,8.274 7.643,8.152 7.500 C 7.879 7.182,7.337 6.823,6.877 6.658 C 6.547 6.539,6.460 6.534,4.696 6.517 C 3.123 6.503,2.827 6.512,2.639 6.584 C 2.159 6.767,1.908 7.280,2.055 7.775 C 2.137 8.051,2.380 8.325,2.640 8.434 C 2.752 8.481,3.325 8.510,4.564 8.531 L 6.329 8.560 6.511 8.701 C 6.627 8.791,7.114 9.501,7.840 10.640 C 8.471 11.629,8.995 12.459,9.004 12.486 C 9.015 12.513,8.358 12.533,7.465 12.533 C 5.951 12.533,5.902 12.537,5.695 12.653 C 5.425 12.805,5.218 13.149,5.214 13.453 C 5.211 13.605,5.426 14.349,5.864 15.707 C 6.224 16.821,6.576 17.886,6.646 18.073 C 6.955 18.898,7.668 19.668,8.496 20.072 C 9.460 20.542,8.728 20.507,17.440 20.507 C 23.707 20.507,25.206 20.493,25.467 20.435 C 26.128 20.286,26.756 19.975,27.294 19.528 C 27.565 19.303,28.043 18.691,28.211 18.355 C 28.461 17.855,29.587 14.710,29.755 14.041 C 30.101 12.661,30.063 11.003,29.648 9.393 C 29.046 7.057,27.648 5.168,25.614 3.939 C 24.404 3.208,22.802 2.712,21.173 2.563 C 20.269 2.481,19.850 2.492,19.598 2.607 M22.112 4.722 C 25.716 5.442,27.914 8.103,27.964 11.804 L 27.973 12.507 23.027 12.520 C 20.306 12.528,18.080 12.519,18.080 12.500 C 18.080 12.481,18.670 10.678,19.391 8.493 L 20.702 4.520 21.084 4.557 C 21.295 4.576,21.757 4.651,22.112 4.722 M27.257 15.240 C 26.420 17.604,26.324 17.796,25.797 18.152 C 25.240 18.529,25.761 18.507,17.467 18.507 C 9.336 18.507,9.712 18.520,9.232 18.216 C 9.007 18.075,8.679 17.724,8.570 17.510 C 8.508 17.387,7.929 15.645,7.648 14.733 L 7.578 14.507 17.547 14.507 L 27.517 14.507 27.257 15.240 M11.442 21.549 C 9.683 21.824,8.379 23.111,8.073 24.876 C 7.873 26.029,8.247 27.291,9.043 28.152 C 9.929 29.108,10.985 29.547,12.238 29.478 C 13.924 29.386,15.346 28.257,15.846 26.613 C 16.008 26.079,16.022 25.069,15.874 24.492 C 15.531 23.154,14.422 22.032,13.071 21.658 C 12.604 21.529,11.883 21.481,11.442 21.549 M22.453 21.543 C 20.845 21.769,19.556 22.924,19.114 24.536 C 18.972 25.055,18.983 25.984,19.138 26.530 C 19.347 27.264,19.636 27.747,20.211 28.323 C 20.629 28.741,20.801 28.872,21.173 29.054 C 22.375 29.644,23.739 29.635,24.851 29.031 C 25.618 28.614,26.226 27.983,26.584 27.232 C 27.071 26.212,27.110 25.036,26.691 24.005 C 26.238 22.890,25.220 21.980,24.068 21.661 C 23.625 21.538,22.876 21.483,22.453 21.543 M12.858 23.694 C 13.439 23.978,13.885 24.581,13.968 25.195 C 14.117 26.290,13.440 27.241,12.354 27.466 C 11.516 27.639,10.583 27.147,10.208 26.335 C 10.072 26.040,10.053 25.940,10.053 25.493 C 10.053 25.059,10.073 24.944,10.192 24.691 C 10.432 24.180,10.758 23.872,11.301 23.642 C 11.556 23.535,11.671 23.519,12.083 23.534 C 12.476 23.547,12.620 23.577,12.858 23.694 M23.857 23.707 C 24.264 23.909,24.701 24.379,24.849 24.773 C 24.985 25.137,24.999 25.795,24.878 26.138 C 24.585 26.968,23.861 27.484,22.987 27.484 C 22.236 27.484,21.571 27.070,21.210 26.378 C 21.052 26.076,21.040 26.016,21.040 25.520 C 21.040 25.057,21.058 24.948,21.179 24.691 C 21.418 24.180,21.744 23.872,22.288 23.642 C 22.544 23.534,22.656 23.519,23.067 23.535 C 23.465 23.550,23.599 23.579,23.857 23.707 " fill="#1A1C1F" stroke="none" fill-rule="evenodd"></path></svg>
